X:638
T:Miss Hay of Yester
R:Reel
B:The Athole Collection
M:C|
L:1/8
K:D
d2fd e2ge|fafd cedA|d2fd e2ge|faAc d2 d>A:|
|:D2FD AfdB|AFED CECA,|1 D2FD AFdB|AFGE D2 D>A:|2
D2FD AFdA|Bgec d2 d>A||

